!!!COM: Beethoven
!!!OTL: Acht Variationen uber "Une fievre brulante" aus "Richard Coeur de Lion" von A.E.M. Gretry
!!!Variation: Variation 8 b2
**function	**harm	**kern	**kern
*	*	*clefF4	*clefG2
*	*	*k[]	*k[]
*M2/4	*M2/4	*M2/4	*M2/4
*C:	*C:	*C:	*C:
8D	8Ib/V	8r	8dd
=281	=281	=281	=281
2D	2Ib/V	8BBL	16cc#LL
.	.	.	16dd
.	.	8DJ	16ee
.	.	.	16ddJJ
.	.	8GL	16dddLL
.	.	.	16dd
.	.	8BJ	16ddd
.	.	.	16ddJJ
=282	=282	=282	=282
2D	2ii7/V	8AAL	16bLL
.	.	.	16cc
.	.	8EJ	16dd
.	.	.	16ccJJ
.	.	8GL	16cccLL
.	.	.	16cc
.	.	8AJ	16ccc
.	.	.	16ccJJ
=283	=283	=283	=283
2D	2V7/V	8DL	16bLL
.	.	.	16cc
.	.	8F#J	16dd
.	.	.	16ccJJ
.	.	8AL	16cccLL
.	.	.	16cc
.	.	8dJ	16ccc
.	.	.	16ccJJ
=284	=284	=284	=284
2D	2V7/V	8f#L	16cccLL
.	.	.	16bb
.	.	8aJ	16aa
.	.	.	16ggJJ
.	.	8dL	16ff#LL
.	.	.	16ee
.	.	8f#J	16dd
.	.	.	16ccJJ
=285	=285	=285	=285
4D	4I/V	8GL	16bLL
.	.	.	16cc
.	.	8gJ	16b
.	.	.	16aJJ
4D	4V7d/IV/V	8FL	16bLL
.	.	.	16g
.	.	8fJ	16a
.	.	.	16bJJ
=286	=286	=286	=286
4P	4IVb/V	8EL	16ccLL
.	.	.	16dd
.	.	8eJ	16ee
.	.	.	16ff#JJ
4P	4IV/V	8CL	16ggLL
.	.	.	16ee
.	.	8cJ	16dd
.	.	.	16ccJJ
=287	=287	=287	=287
4D	4Cc/V	8DL	16bLL
.	.	.	16dd
.	.	8dJ	16g
.	.	.	16bJJ
4D	4V7/V	8DDL	16aLL
.	.	.	16cc
.	.	8DJ	16f#
.	.	.	16aJJ
=288	=288	=288	=288
4.T	4.I/V	8r	4g
.	.	8GGL	.
.	.	8GJ	8r
*-	*-	*-	*-
